icon-themes/sifr_svg/cmd/lc_insertfixedtext.svg

<svg viewBox="0 0 24 24" xmlns="http://www.w3.org/2000/svg"><g fill="#555753"><path d="m4 4c-1.662 0-3 1.338-3 3v11c0 1.662 1.338 3 3 3h16c1.662 0 3-1.338 3-3v-11c0-1.662-1.338-3-3-3z" opacity=".35"/><path d="m7 5v3h8c1.104569 0 2 .8954305 2 2v1h-8.5c-2.4852814 0-4.5 2.014719-4.5 4.5s2.0147186 4.5 4.5 4.5h8.5 3v-10c0-2.7614237-2.238576-5-5-5zm1.5 9h8.5v3h-8.5c-.8284271 0-1.5-.671573-1.5-1.5s.6715729-1.5 1.5-1.5z"/></g></svg>

<svg xmlns="http://www.w3.org/2000/svg" viewBox="0 0 24 24">
  <path
     style="opacity:0.35;fill:#555753"
     d="M 4 4 C 2.338 4 1 5.338 1 7 L 1 18 C 1 19.662 2.338 21 4 21 L 20 21 C 21.662 21 23 19.662 23 18 L 23 7 C 23 5.338 21.662 4 20 4 L 4 4 z "
     />
  <path
     style="fill:#555753"
     d="m 7,5 v 3 h 8 c 1.104569,0 2,0.8954305 2,2 v 1 H 8.5 C 6.0147186,11 4,13.014719 4,15.5 4,17.985281 6.0147186,20 8.5,20 H 17 20 V 10 C 20,7.2385763 17.761424,5 15,5 Z m 1.5,9 H 17 v 3 H 8.5 C 7.6715729,17 7,16.328427 7,15.5 7,14.671573 7.6715729,14 8.5,14 Z"
     />
</svg>
